X:1
T:Glenwhorple Highlanders
M:4/4
L:1/16
K:F
 A3 B| c4 A4 A3 G A3 B| c3 B A3 G A4 A3 B| c3 A A3 A A3 G F3 G| A3 G G3 A G4|\
 A3 B| c3 A A3 A A3 G A3 B| c3 B A3 G A6 c2| F3 F F3 G A4 F4| G8 F8|\
 c4 A4 A4 A4| c4 A4 A8| c4 A4 A3 G F3 G| A4 G4 G8| c4 A3 A A3 G A3 B|\
 c4 A4 A8| F6 G2 A4 F4| G8 F4||
